!!!COM: Palestrina, Giovanni Perluigi da
!!!OPR: Missa Virtute magna
!!!OMD: Credo
!!!OTL: First Section
**kern	**kern	**kern	**kern
*Ibass	*Itenor	*Icalto	*Icant
!Bassus	!Tenor	!Altus	!Cantus
*clefF4	*clefGv2	*clefG2	*clefG2
*k[]	*k[]	*k[]	*k[]
*G:mix	*G:mix	*G:mix	*G:mix
*M4/2	*M4/2	*M4/2	*M4/2
=1	=1	=1	=1
0r	0r	0r	1g
.	.	.	1dd
=2	=2	=2	=2
0r	0r	1r	1dd
.	.	1c	1ee
=3	=3	=3	=3
0r	0r	1g	1.dd
.	.	1g	.
.	.	.	2b
=4	=4	=4	=4
0r	0r	1a	1cc
.	.	[1g	2.b
.	.	.	4cc
=5	=5	=5	=5
0r	0r	2g]	2dd
.	.	2e	2.ee
.	.	1f	.
.	.	.	4dd
.	.	.	2dd
=6	=6	=6	=6
0r	0r	2.e	2cc
.	.	.	4b
.	.	4f	4a
.	.	2g	2b
.	.	[2a	[2cc
=7	=7	=7	=7
0r	1G	4a]	4cc]
.	.	4g	4b
.	.	1g	4b
.	.	.	8a
.	.	.	8g
.	1d	.	[1a
.	.	4f	.
.	.	4e	.
=8	=8	=8	=8
1r	1d	1f#	2a]
.	.	.	2b
1C	1e	[1g	1cc
=9	=9	=9	=9
1G	1.d	1g]	0dd
1G	.	1r	.
.	2B	.	.
=10	=10	=10	=10
1A	1c	2r	0r
.	.	2c	.
[1G	2.B	1g	.
.	4c	.	.
=11	=11	=11	=11
2G]	2d	1g	0r
2E	2e	.	.
1F	2d	1a	.
.	[2c	.	.
=12	=12	=12	=12
2.E	2c]	1.g	0r
.	4B	.	.
4F	4A	.	.
2G	2B	.	.
2A	2c	2e	.
=13	=13	=13	=13
4D	1d	1f	1r
4E	.	.	.
4F	.	.	.
4G	.	.	.
4A	1c	1e	2r
4B	.	.	.
[2c	.	.	[2g
=14	=14	=14	=14
2c]	1G	2.d	2g]
2B	.	.	2g
.	.	4e	.
2A	1r	2f	2a
2G	.	2g	2b
=15	=15	=15	=15
0A	1.c	2f	2cc
.	.	4e	1cc
.	.	4d	.
.	.	2e	.
.	2c	2f#	4b
.	.	.	4a
=16	=16	=16	=16
1G	2d	1g	1b
.	2e	.	.
1r	2f	1d	2.a
.	[2f	.	.
.	.	.	4b
=17	=17	=17	=17
1r	2f]	0r	2cc
.	4e	.	1dd
.	4d	.	.
1A	2e	.	.
.	2e	.	2cc#
=18	=18	=18	=18
2B	0d	0r	2dd
2.d	.	.	2a
.	.	.	2b
4c	.	.	.
4B	.	.	[2dd
4A	.	.	.
=19	=19	=19	=19
2G	0r	1d	4dd]
.	.	.	4cc
2B	.	.	4b
.	.	.	4a
2c	.	2e	2.g
2c	.	[2g	.
.	.	.	4a
=20	=20	=20	=20
1G	2r	4g]	2b
.	.	4f	.
.	2G	4e	2b
.	.	4d	.
2r	2A	4c	2.cc
.	.	4d	.
2C	[2c	[2e	.
.	.	.	8b
.	.	.	8a
=21	=21	=21	=21
2E	4c]	2e]	2g
.	4B	.	.
1F	4A	2c	1a
.	4G	.	.
.	2F	2c	.
2E	2G	2c	[2g
=22	=22	=22	=22
2D	2A	1d	2g]
2D	2A	.	2f#
1G	[1G	2r	2.g
.	.	[2d	.
.	.	.	4a
=23	=23	=23	=23
2r	1G]	2d]	4b
.	.	.	4cc
1G	.	2d	1dd
.	1r	2e	.
2A	.	2f	2cc
=24	=24	=24	=24
2B	0r	1.g	1b
2c	.	.	.
1d	.	.	[1a
.	.	4f	.
.	.	4e	.
=25	=25	=25	=25
2.D	2r	2.f	1a]
.	1d	.	.
4E	.	4e	.
2F	.	4d	1r
.	.	4c	.
[2G	2d	[2B-	.
=26	=26	=26	=26
4G]	2e	4B-]	0r
4F	.	4A	.
2D	2f	1d	.
2E	[1g	.	.
2E	.	2c#	.
=27	=27	=27	=27
1D	2g]	0d	2r
.	4f	.	1a
.	4e	.	.
2r	2f	.	.
[2d	2f	.	2a
=28	=28	=28	=28
2d]	1e	1r	2b
2c	.	.	2cc
2B	1d	2r	2dd
4A	.	[2g	4cc
4G	.	.	4b
=29	=29	=29	=29
1A	1r	2g]	2cc
.	.	2f#	2cc
1G	2r	1g	1b
.	[2g	.	.
=30	=30	=30	=30
2r	2g]	2.d	1a
1d	2f	.	.
.	.	4e	.
.	2d	2f	1r
2c#	2e	[2e	.
=31	=31	=31	=31
1d	1f	4e]	0a
.	.	4d	.
.	.	1d	.
1A	1e	.	.
.	.	2c#	.
=32	=32	=32	=32
1B-	2r	1d	1g
.	2.d	.	.
1A	.	1e	[1a
.	4d	.	.
.	2c	.	.
=33	=33	=33	=33
2F	1f	2r	0a]
2D	.	2.d	.
1A	1e	.	.
.	.	4d	.
.	.	2c	.
=34	=34	=34	=34
1r	4A	2f	0a
.	4B	.	.
.	4c	2e	.
.	4d	.	.
2r	1e	4A	.
.	.	4B	.
[2A	.	4c	.
.	.	4d	.
=35	=35	=35	=35
4A]	1c	4e	1r
4A	.	4A	.
2F	.	1a	.
1B-	2.d	.	2r
.	.	2g	[2dd
.	4e	.	.
=36	=36	=36	=36
1A	2f	1.a	4dd]
.	.	.	4dd
.	2e	.	2cc
4D	2d	.	1ff
4E	.	.	.
4F	4A	2a	.
4G	4B	.	.
=37	=37	=37	=37
4A	4c	[0a	1ee
4B	4d	.	.
4c	4e	.	.
4A	4c	.	.
2d	2f	.	4a
.	.	.	4b
2c	4e	.	4cc
.	4d	.	4dd
=38	=38	=38	=38
2.A	2.c	0a]	4ee
.	.	.	4cc
.	.	.	2ff
4B	4d	.	.
2c	2e	.	2ee
2d	2f	.	[2dd
=39	=39	=39	=39
0A	1.e	0a	2dd]
.	.	.	4cc
.	.	.	4b
.	.	.	2cc#
.	2e	.	2cc#
=40	=40	=40	=40
2r	2d	0r	0dd
1d	1f	.	.
2d	2f	.	.
=41	=41	=41	=41
2c	1e	2r	1r
2c	.	1g	.
4B	1d	.	2r
4A	.	.	.
4B	.	2g	[2dd
4c	.	.	.
=42	=42	=42	=42
1d	0r	2f	2dd]
.	.	2f	2dd
2A	.	4e	2cc
.	.	4d	.
2c	.	4e	2cc
.	.	4f	.
=43	=43	=43	=43
1G	0r	2.g	4b
.	.	.	4a
.	.	.	4b
.	.	4f	4cc
1r	.	4d	2.dd
.	.	4e	.
.	.	[2f	.
.	.	.	4cc
=44	=44	=44	=44
1r	0r	2f]	4a
.	.	.	4b
.	.	4e	1cc
.	.	4d	.
2r	.	1e	.
[2G	.	.	4b
.	.	.	4a
=45	=45	=45	=45
2G]	2r	1d	1b
2G	1d	.	.
2F	.	1r	1a
2F	2d	.	.
=46	=46	=46	=46
4E	2c	0r	0r
4D	.	.	.
4E	2c	.	.
4F	.	.	.
2.G	4B	.	.
.	4A	.	.
.	4B	.	.
4F	4c	.	.
=47	=47	=47	=47
4D	4d	0r	0r
4E	4c	.	.
4F	4A	.	.
4G	4B	.	.
2A	4c	.	.
.	4d	.	.
[2G	[2e	.	.
=48	=48	=48	=48
4G]	4e]	1r	0r
4F	4d	.	.
4E	1d	.	.
4D	.	.	.
2E	.	1g	.
2E	2c#	.	.
=49	=49	=49	=49
1D	2d	2f	1r
.	2d	2f	.
1r	1G	1b-	1dd
=50	=50	=50	=50
0r	1r	0a	2cc
.	.	.	2cc
.	1d	.	1ff
=51	=51	=51	=51
1A	2c	1r	1ee
.	2c	.	.
2F	2.f	2r	1r
2F	.	[2a	.
.	4e	.	.
=52	=52	=52	=52
2B-	2d	2a]	2r
2B-	2d	2g	1dd
1A	1e	1a	.
.	.	.	2cc
=53	=53	=53	=53
1r	2r	1a	1ff
.	1d	.	.
1A	.	1r	1ee
.	2c	.	.
=54	=54	=54	=54
2A	2c	1a	2r
2F	2.f	.	2a
1B-	.	2d	2a
.	4e	.	.
.	[2d	2d	2g
=55	=55	=55	=55
0A	2d]	2f	0a
.	4c	4e	.
.	4B	4d	.
.	1c#	1e	.
=56	=56	=56	=56
2r	1d	1f#	0a
1d	.	.	.
.	1r	2r	.
2d	.	[2a	.
=57	=57	=57	=57
2c	0r	2a]	0r
2d	.	2a	.
2B-	.	2g	.
2A	.	2a	.
=58	=58	=58	=58
1.d	0r	2f	0r
.	.	2d	.
.	.	[1a	.
4c	.	.	.
4B-	.	.	.
=59	=59	=59	=59
2A	0r	2a]	0r
2B	.	4g	.
.	.	4f	.
2c	.	2e	.
2A	.	2f#	.
=60	=60	=60	=60
2G	0r	2g	0r
2A	.	2e	.
2B-	.	2d	.
[2A	.	2e	.
=61	=61	=61	=61
2A]	1r	2f	0r
4G	.	2.e	.
4F	.	.	.
2.G	2r	.	.
.	.	4d	.
.	2d	[2d	.
4F	.	.	.
=62	=62	=62	=62
1E	2e	2d]	1r
.	2.g	2c#	.
1D	.	1d	2r
.	4f	.	.
.	2f	.	2a
=63	=63	=63	=63
0r	2e	2G	2b
.	2d	2B	2.dd
.	2f	1A	.
.	.	.	4cc
.	2e	.	2cc
=64	=64	=64	=64
0r	2d	0r	2b
.	4c	.	2a
.	4B	.	.
.	2A	.	2.cc
.	[2c	.	.
.	.	.	4b
=65	=65	=65	=65
0r	2c]	2r	2a
.	2B	2d	1g
.	1A	2e	.
.	.	2c	2f#
=66	=66	=66	=66
2r	0G	2d	1g
2G	.	1e	.
2A	.	.	1r
2F	.	4d	.
.	.	4c	.
=67	=67	=67	=67
2.G	0r	4B	1dd
.	.	4c	.
.	.	2.d	.
4F	.	.	.
2E	.	.	2ee
.	.	4c	.
2F	.	[2c	2cc
=68	=68	=68	=68
2D	1d	2c]	1dd
2D	.	2B	.
1C	[1e	2c	2.g
.	.	[2g	.
.	.	.	4a
=69	=69	=69	=69
1r	2e]	2g]	2b
.	2c	2a	1cc
2r	1d	2f	.
2G	.	2g	2b
=70	=70	=70	=70
2A	2c	2e	1a
2F	2A	2f	.
1G	4B	1d	[1g
.	4c	.	.
.	4d	.	.
.	4B	.	.
=71	=71	=71	=71
2E	4c	1e	0g]
.	4d	.	.
4C	2.e	.	.
4D	.	.	.
4E	.	1r	.
4F	4d	.	.
2G	4B	.	.
.	4c	.	.
=72	=72	=72	=72
2.F	4d	2r	0r
.	4c	.	.
.	1c	2c	.
4E	.	.	.
1D	.	1f	.
.	2B	.	.
=73	=73	=73	=73
1C	1c	2e	2r
.	.	2e	2cc
1r	1r	4d	1ff
.	.	4e	.
.	.	4f	.
.	.	4g	.
=74	=74	=74	=74
1r	1c	4a	2ee
.	.	4b	.
.	.	1cc	2ee
1G	1g	.	1dd
.	.	2b	.
=75	=75	=75	=75
1c	2e	2g	1cc
.	2e	2.a	.
2B	1d	.	2r
.	.	4g	.
2B	.	[2g	2g
=76	=76	=76	=76
1A	2.c	2g]	1cc
.	.	2f#	.
.	4d	.	.
2G	4e	1g	2b
.	4f#	.	.
2G	[2g	.	2b
=77	=77	=77	=77
1d	2g]	0r	1a
.	2f#	.	.
1G	1g	.	1b
=78	=78	=78	=78
1r	1r	0g	1r
1G	1d	.	1b
=79	=79	=79	=79
1G	1d	1g	1b
1G	1B	1g	1dd
=80	=80	=80	=80
1A	1c	1e	1cc
1D	1d	1f#	1a
=81	=81	=81	=81
1G	1d	1g	1b
1r	1r	1r	1r
=82	=82	=82	=82
1G	1d	1g	1b
[1F	2A	[1a	[1cc
.	2A	.	.
=83	=83	=83	=83
2F]	2.c	2a]	2cc]
2F	.	2a	2b
.	4d	.	.
1E	2e	1g	1b
.	[2c	.	.
=84	=84	=84	=84
0D	2c]	1f	0cc
.	4B	.	.
.	4A	.	.
.	1B	1d	.
=85	=85	=85	=85
1C	1c	1g	1ee
1r	1r	1r	1r
=86	=86	=86	=86
1.C	1.e	1.g	1.cc
2C	2e	2g	2cc
=87	=87	=87	=87
1F	1f	1a	1cc
1F	1f	1a	1cc
=88	=88	=88	=88
1.G	1.d	1.g	1.b-
2D	2d	2f	2a
=89	=89	=89	=89
1D	2d	2f	1a
.	1f	1d	.
1r	.	.	1r
.	2e	2c#	.
=90	=90	=90	=90
2r	1f	1d	[0a
1d	.	.	.
.	1e	1A	.
2c#	.	.	.
=91	=91	=91	=91
1d	2r	2r	0a]
.	1d	1f	.
1A	.	.	.
.	2c#	2e	.
=92	=92	=92	=92
1r	2d	2f	1a
.	2c	2e	.
2r	1B-	1d	1g
[2d	.	.	.
=93	=93	=93	=93
2d]	1A	1e	0a
2c#	.	.	.
1d	2r	2r	.
.	[2f	[2a	.
=94	=94	=94	=94
0A	2f]	2a]	0cc
.	4e	4g	.
.	4d	4f	.
.	2.c	2e	.
.	.	2f#	.
.	4d	.	.
=95	=95	=95	=95
1G	2e	2.g	1b
.	2d	.	.
.	.	4f	.
1C	2.c	2e	2a
.	.	2e	[2g
.	4B	.	.
=96	=96	=96	=96
0D	1.A	[0d	2g]
.	.	.	4f
.	.	.	4e
.	.	.	1f#
.	2A	.	.
=97	=97	=97	=97
[0G	[0G	1d_	[0g
.	.	1d_	.
=98	=98	=98	=98
0G]	0G]	0d]	0g]
*-	*-	*-	*-
!!!CDT: 1525/^1526/-1594/2/2
!!!OCY: Italia
!!!AGN: Mass (Parody)
!!!AST: renaissance, vocal
!!!ASW: Motet 1532 (Lasson)
!!!PWK: Masses, Book I
!!!RNB: Cadence finals: D
!!!YOR: Le Opere Complete, v. 1, p. 62
!!!YOO: Rome, Italy: Fratelli Scalera
!!!END: 1992//
!!!EED: John Miller
!!!YEC: Copyright 2000, John Miller
!!!YEN: United States of America
!!!YEM: Rights to all derivative electronic formats reserved.
!!!YEM: Refer to licensing agreement for further details.
!!!YEM: This file must be accompanied by the licensing agreement.
!!!YEM: A copy of the licensing agreement may be found at http://www.music-cog.ohio-state.edu/HumdrumDatabases/Palestrina/license.txt
!!!EMD: converted to Humdrum by Bret Aarden
